tools/download-figma-icons/icons/outlined-medium/glass-fiber.svg

<svg width="24" height="24" viewBox="0 0 24 24" fill="none" xmlns="http://www.w3.org/2000/svg">
<path fill-rule="evenodd" clip-rule="evenodd" d="M23.246 3.30226C23.2547 3.30226 23.2612 3.30225 23.2655 3.30222C23.6802 3.31122 24.008 3.65322 23.9997 4.06797C23.9922 4.47672 23.657 4.80297 23.2497 4.80297C23.2478 4.80277 23.2473 4.80263 23.2469 4.80253C23.2457 4.80227 23.2443 4.80241 23.2077 4.80297C23.0045 4.80297 21.7175 4.82472 20.1132 5.23122C19.7 6.18747 19.0992 7.31471 18.2247 8.52146C19.88 8.20271 21.491 8.24397 21.779 8.25521C22.1915 8.27096 22.5155 8.61897 22.4997 9.03372C22.4832 9.44697 22.1345 9.79046 21.7205 9.75446C20.5625 9.70947 17.3015 9.84371 16.1307 10.968L13.7082 13.2975C13.562 13.4377 13.3745 13.5067 13.187 13.5067C12.9905 13.5067 12.794 13.4302 12.647 13.2772C12.3597 12.978 12.3695 12.5032 12.6672 12.216L15.0852 9.89172C16.475 8.50047 17.4297 7.12646 18.0905 5.92722C17.2437 6.30596 16.394 6.80997 15.6282 7.48571C15.618 7.49545 15.6063 7.50127 15.5944 7.50718C15.5861 7.51128 15.5777 7.51543 15.5697 7.52097C15.5412 7.55259 15.5136 7.58451 15.486 7.61649C15.439 7.67096 15.3919 7.72556 15.3395 7.77896L11.774 11.343C11.627 11.4892 11.4357 11.5627 11.2437 11.5627C11.0517 11.5627 10.859 11.4892 10.7127 11.343C10.4195 11.0497 10.4195 10.575 10.7127 10.2817L14.2782 6.71771C16.6055 4.38897 15.7775 0.967465 15.7685 0.932965C15.6672 0.531715 15.9102 0.123715 16.313 0.0224655C16.7135 -0.0772845 17.123 0.164215 17.2235 0.566965C17.2535 0.683965 17.7132 2.59947 17.1102 4.73022C17.747 4.41896 18.3815 4.17222 18.992 3.98247C19.4 2.89058 19.4994 2.18837 19.5034 2.16055L19.5035 2.15997C19.5552 1.74972 19.9205 1.45647 20.3397 1.50672C20.75 1.55772 21.0417 1.92897 20.9937 2.33922C20.9877 2.39397 20.93 2.83872 20.723 3.55497C22.0787 3.30308 23.076 3.30238 23.246 3.30226ZM2.90808 21.0917C4.16283 22.3449 5.43558 22.7559 5.83458 22.3569L12.1826 16.0082C11.3171 15.7682 10.3983 15.2237 9.58683 14.4129C8.79108 13.6179 8.25408 12.6782 8.01783 11.7902L1.64283 18.1652C1.24233 18.5657 1.65483 19.8384 2.90808 21.0917ZM12.6176 14.5787C13.1081 14.7107 13.5183 14.6732 13.7148 14.4774C14.0073 14.1842 14.4821 14.1842 14.7761 14.4774C14.9223 14.6237 14.9958 14.8157 14.9958 15.0077C14.9958 15.1997 14.9223 15.3917 14.7761 15.5387L6.89582 23.4182C6.50432 23.8097 5.99282 23.9994 5.41307 23.9994C4.34732 23.9994 3.05132 23.3574 1.84682 22.1537C-0.0116796 20.2937 -0.53218 18.2177 0.58157 17.1039L8.46182 9.22444C8.75507 8.93119 9.22907 8.93119 9.52232 9.22444C9.66857 9.37144 9.74282 9.56269 9.74282 9.75469C9.74282 9.94669 9.66857 10.1387 9.52232 10.2849C9.38507 10.4237 9.31007 10.8099 9.45107 11.3657C9.62207 12.0384 10.0593 12.7614 10.6481 13.3517C11.2541 13.9569 11.9718 14.4039 12.6176 14.5787Z" fill="black"/>
</svg>

<svg width="24" height="24" viewBox="0 0 24 24" fill="none" xmlns="http://www.w3.org/2000/svg"><path fill-rule="evenodd" clip-rule="evenodd" d="M23.246 3.302h.02a.75.75 0 0 1-.016 1.501h-.043c-.203 0-1.49.022-3.094.428a17.337 17.337 0 0 1-1.888 3.29c1.655-.318 3.266-.277 3.554-.266a.75.75 0 0 1 .72.779c-.016.413-.364.756-.778.72-1.159-.045-4.42.09-5.59 1.214l-2.423 2.33a.75.75 0 0 1-1.04-1.082l2.417-2.324a17.69 17.69 0 0 0 3.005-3.965 9.669 9.669 0 0 0-2.462 1.559.13.13 0 0 1-.034.021.19.19 0 0 0-.024.014 5.882 5.882 0 0 0-.084.095c-.047.055-.094.11-.147.163l-3.565 3.564a.75.75 0 1 1-1.061-1.061l3.565-3.564c2.327-2.329 1.5-5.75 1.49-5.785a.75.75 0 1 1 1.456-.366c.03.117.49 2.032-.114 4.163a13.253 13.253 0 0 1 1.882-.748c.408-1.091.507-1.794.511-1.821V2.16a.75.75 0 0 1 1.49.18c-.005.054-.063.499-.27 1.215a14.161 14.161 0 0 1 2.523-.253ZM2.908 21.092c1.255 1.253 2.528 1.664 2.927 1.265l6.348-6.349c-.866-.24-1.785-.784-2.596-1.595-.796-.795-1.333-1.735-1.57-2.623l-6.374 6.375c-.4.4.012 1.673 1.265 2.927Zm9.71-6.513c.49.132.9.094 1.097-.102a.75.75 0 1 1 1.061 1.062l-7.88 7.88c-.392.39-.903.58-1.483.58-1.066 0-2.362-.642-3.566-1.845-1.859-1.86-2.38-3.936-1.265-5.05l7.88-7.88a.75.75 0 1 1 1.06 1.06c-.137.14-.212.526-.07 1.082.17.672.607 1.395 1.196 1.986.606.605 1.324 1.052 1.97 1.227Z" fill="currentColor"/></svg>
